packages/elvis-assets-icons/icons/svg/src/form.svg

<svg width="24" height="24" viewBox="0 0 24 24" fill="none" xmlns="http://www.w3.org/2000/svg">
<path d="M10.7794 24C10.5715 24 10.3751 23.9191 10.2286 23.7719C10.0436 23.5883 9.96359 23.3249 10.0156 23.0698L10.795 19.1809C10.8251 19.0295 10.8989 18.8916 11.008 18.7827L18.9374 10.8701C19.4986 10.309 20.2468 10 21.0429 10C21.8358 10 22.581 10.307 23.1421 10.8628C24.2749 12.0233 24.2843 13.8599 23.1796 15.0576C23.1764 15.0618 23.1609 15.0773 23.1577 15.0804L15.2284 22.993C15.1203 23.1019 14.981 23.1756 14.8293 23.2056L10.9332 23.9834C10.8812 23.9948 10.8303 24 10.7794 24ZM11.7729 22.2308L14.292 21.7279L22.0478 13.9884C22.5664 13.4201 22.5716 12.5096 22.0468 11.9714C22.0437 11.9683 22.0281 11.9527 22.025 11.9486C21.7756 11.7007 21.4212 11.5556 21.0429 11.5556L21.0419 11.1667V11.5556C20.6636 11.5556 20.3071 11.7028 20.04 11.9704L12.2769 19.717L11.7729 22.2308Z" fill="black"/>
<path d="M4 10.25C4 9.83579 4.37776 9.5 4.84375 9.5H12.1562C12.6222 9.5 13 9.83579 13 10.25C13 10.6642 12.6222 11 12.1562 11H4.84375C4.37776 11 4 10.6642 4 10.25Z" fill="black"/>
<path d="M4 6.75C4 6.33579 4.37776 6 4.84375 6H12.1562C12.6222 6 13 6.33579 13 6.75C13 7.16421 12.6222 7.5 12.1562 7.5H4.84375C4.37776 7.5 4 7.16421 4 6.75Z" fill="black"/>
<path d="M4 13.75C4 13.3358 4.33579 13 4.75 13H8.25C8.66421 13 9 13.3358 9 13.75C9 14.1642 8.66421 14.5 8.25 14.5H4.75C4.33579 14.5 4 14.1642 4 13.75Z" fill="black"/>
<path d="M2.25258 21C1.01016 21 0 19.991 0 18.75V2.25C0 1.009 1.01116 0 2.25258 0H12.8938C13.4955 0 14.0601 0.234 14.4856 0.657999L17.3609 3.53C17.7864 3.95499 18.0207 4.51999 18.0207 5.11999V8.24999C18.0207 8.66399 17.6843 8.99999 17.2698 8.99999C16.8553 8.99999 16.5189 8.66399 16.5189 8.24999V5.12099C16.5189 4.92399 16.4388 4.73099 16.2997 4.59099L13.4244 1.719C13.2822 1.578 13.094 1.5 12.8938 1.5H2.25258C1.83811 1.5 1.50172 1.836 1.50172 2.25V18.75C1.50172 19.164 1.83811 19.5 2.25258 19.5H7.5086C7.92308 19.5 8.25947 19.836 8.25947 20.25C8.25947 20.664 7.92308 21 7.5086 21H2.25258Z" fill="black"/>
</svg>

<svg width="24" height="24" fill="none" xmlns="http://www.w3.org/2000/svg"><path d="M10.78 24a.773.773 0 01-.551-.228.771.771 0 01-.213-.702l.779-3.89a.775.775 0 01.213-.397l7.93-7.913a2.958 2.958 0 012.105-.87c.793 0 1.538.307 2.1.863 1.132 1.16 1.141 2.997.037 4.195a.437.437 0 01-.022.022l-7.93 7.913a.773.773 0 01-.399.213l-3.896.777a.713.713 0 01-.154.017zm.993-1.77l2.519-.502 7.756-7.74c.518-.568.524-1.478-.001-2.017l-.022-.022a1.393 1.393 0 00-.982-.393l-.001-.39v.39c-.378 0-.735.147-1.002.414l-7.763 7.747-.504 2.514zM4 10.25c0-.414.378-.75.844-.75h7.312c.466 0 .844.336.844.75s-.378.75-.844.75H4.844C4.378 11 4 10.664 4 10.25zM4 6.75c0-.414.378-.75.844-.75h7.312c.466 0 .844.336.844.75s-.378.75-.844.75H4.844C4.378 7.5 4 7.164 4 6.75zM4 13.75a.75.75 0 01.75-.75h3.5a.75.75 0 010 1.5h-3.5a.75.75 0 01-.75-.75z" fill="#000"/><path d="M2.253 21A2.253 2.253 0 010 18.75V2.25A2.254 2.254 0 012.253 0h10.64a2.24 2.24 0 011.593.658L17.36 3.53c.425.425.66.99.66 1.59v3.13a.75.75 0 01-1.502 0V5.121c0-.197-.08-.39-.22-.53l-2.875-2.872a.749.749 0 00-.53-.219H2.253a.75.75 0 00-.751.75v16.5c0 .414.336.75.75.75H7.51a.75.75 0 110 1.5H2.253z" fill="#000"/></svg>
